(VECTRIC POST REVISION)
(2410E23C85915A17A0D6BB4BFA509A68)
T1
G17
G21
G90
G0Z33.320
G0X0.000Y0.000
S10000M3
G0X36.402Y17.628Z18.080
G1Z12.263F200.0
G1X37.382F720.0
G1Y24.766
G1X36.402
G1Y17.628
G1X35.802Y17.028
G1X37.982
G1Y25.366
G1X35.802
G1Y17.028
G1X35.202Y16.428
G1X38.582
G1Y25.966
G1X35.202
G1Y16.428
G1X34.602Y15.828
G1X39.182
G1Y26.566
G1X34.602
G1Y15.828
G1X34.002Y15.228
G1X39.782
G1Y27.166
G1X34.002
G1Y15.228
G1X33.402Y14.628
G1X40.382
G1Y27.766
G1X33.402
G1Y14.628
G1X32.802Y14.028
G1X40.982
G1Y28.366
G1X32.802
G1Y14.028
G1X32.202Y13.428
G1X41.582
G1Y28.966
G1X32.202
G1Y13.428
G1X31.602Y12.828
G1X42.182
G1Y29.566
G1X31.602
G1Y12.828
G1X31.002Y12.228
G1X42.782
G1Y30.166
G1X31.002
G1Y12.228
G1X30.402Y11.628
G1X43.382
G1Y30.766
G1X30.402
G1Y11.628
G0Z18.080
G0X36.402Y17.628
G1Z11.527F200.0
G1X37.382F720.0
G1Y24.766
G1X36.402
G1Y17.628
G1X35.802Y17.028
G1X37.982
G1Y25.366
G1X35.802
G1Y17.028
G1X35.202Y16.428
G1X38.582
G1Y25.966
G1X35.202
G1Y16.428
G1X34.602Y15.828
G1X39.182
G1Y26.566
G1X34.602
G1Y15.828
G1X34.002Y15.228
G1X39.782
G1Y27.166
G1X34.002
G1Y15.228
G1X33.402Y14.628
G1X40.382
G1Y27.766
G1X33.402
G1Y14.628
G1X32.802Y14.028
G1X40.982
G1Y28.366
G1X32.802
G1Y14.028
G1X32.202Y13.428
G1X41.582
G1Y28.966
G1X32.202
G1Y13.428
G1X31.602Y12.828
G1X42.182
G1Y29.566
G1X31.602
G1Y12.828
G1X31.002Y12.228
G1X42.782
G1Y30.166
G1X31.002
G1Y12.228
G1X30.402Y11.628
G1X43.382
G1Y30.766
G1X30.402
G1Y11.628
G0Z18.080
G0X36.402Y17.628
G1Z10.790F200.0
G1X37.382F720.0
G1Y24.766
G1X36.402
G1Y17.628
G1X35.802Y17.028
G1X37.982
G1Y25.366
G1X35.802
G1Y17.028
G1X35.202Y16.428
G1X38.582
G1Y25.966
G1X35.202
G1Y16.428
G1X34.602Y15.828
G1X39.182
G1Y26.566
G1X34.602
G1Y15.828
G1X34.002Y15.228
G1X39.782
G1Y27.166
G1X34.002
G1Y15.228
G1X33.402Y14.628
G1X40.382
G1Y27.766
G1X33.402
G1Y14.628
G1X32.802Y14.028
G1X40.982
G1Y28.366
G1X32.802
G1Y14.028
G1X32.202Y13.428
G1X41.582
G1Y28.966
G1X32.202
G1Y13.428
G1X31.602Y12.828
G1X42.182
G1Y29.566
G1X31.602
G1Y12.828
G1X31.002Y12.228
G1X42.782
G1Y30.166
G1X31.002
G1Y12.228
G1X30.402Y11.628
G1X43.382
G1Y30.766
G1X30.402
G1Y11.628
G0Z18.080
G0X36.402Y17.628
G1Z10.053F200.0
G1X37.382F720.0
G1Y24.766
G1X36.402
G1Y17.628
G1X35.802Y17.028
G1X37.982
G1Y25.366
G1X35.802
G1Y17.028
G1X35.202Y16.428
G1X38.582
G1Y25.966
G1X35.202
G1Y16.428
G1X34.602Y15.828
G1X39.182
G1Y26.566
G1X34.602
G1Y15.828
G1X34.002Y15.228
G1X39.782
G1Y27.166
G1X34.002
G1Y15.228
G1X33.402Y14.628
G1X40.382
G1Y27.766
G1X33.402
G1Y14.628
G1X32.802Y14.028
G1X40.982
G1Y28.366
G1X32.802
G1Y14.028
G1X32.202Y13.428
G1X41.582
G1Y28.966
G1X32.202
G1Y13.428
G1X31.602Y12.828
G1X42.182
G1Y29.566
G1X31.602
G1Y12.828
G1X31.002Y12.228
G1X42.782
G1Y30.166
G1X31.002
G1Y12.228
G1X30.402Y11.628
G1X43.382
G1Y30.766
G1X30.402
G1Y11.628
G0Z18.080
G0X36.402Y17.628
G1Z9.317F200.0
G1X37.382F720.0
G1Y24.766
G1X36.402
G1Y17.628
G1X35.802Y17.028
G1X37.982
G1Y25.366
G1X35.802
G1Y17.028
G1X35.202Y16.428
G1X38.582
G1Y25.966
G1X35.202
G1Y16.428
G1X34.602Y15.828
G1X39.182
G1Y26.566
G1X34.602
G1Y15.828
G1X34.002Y15.228
G1X39.782
G1Y27.166
G1X34.002
G1Y15.228
G1X33.402Y14.628
G1X40.382
G1Y27.766
G1X33.402
G1Y14.628
G1X32.802Y14.028
G1X40.982
G1Y28.366
G1X32.802
G1Y14.028
G1X32.202Y13.428
G1X41.582
G1Y28.966
G1X32.202
G1Y13.428
G1X31.602Y12.828
G1X42.182
G1Y29.566
G1X31.602
G1Y12.828
G1X31.002Y12.228
G1X42.782
G1Y30.166
G1X31.002
G1Y12.228
G1X30.402Y11.628
G1X43.382
G1Y30.766
G1X30.402
G1Y11.628
G0Z18.080
G0X36.402Y17.628
G1Z8.580F200.0
G1X37.382F720.0
G1Y24.766
G1X36.402
G1Y17.628
G1X35.802Y17.028
G1X37.982
G1Y25.366
G1X35.802
G1Y17.028
G1X35.202Y16.428
G1X38.582
G1Y25.966
G1X35.202
G1Y16.428
G1X34.602Y15.828
G1X39.182
G1Y26.566
G1X34.602
G1Y15.828
G1X34.002Y15.228
G1X39.782
G1Y27.166
G1X34.002
G1Y15.228
G1X33.402Y14.628
G1X40.382
G1Y27.766
G1X33.402
G1Y14.628
G1X32.802Y14.028
G1X40.982
G1Y28.366
G1X32.802
G1Y14.028
G1X32.202Y13.428
G1X41.582
G1Y28.966
G1X32.202
G1Y13.428
G1X31.602Y12.828
G1X42.182
G1Y29.566
G1X31.602
G1Y12.828
G1X31.002Y12.228
G1X42.782
G1Y30.166
G1X31.002
G1Y12.228
G1X30.402Y11.628
G1X43.382
G1Y30.766
G1X30.402
G1Y11.628
G0Z18.080
G0X36.402Y17.628
G1Z7.844F200.0
G1X37.382F720.0
G1Y24.766
G1X36.402
G1Y17.628
G1X35.802Y17.028
G1X37.982
G1Y25.366
G1X35.802
G1Y17.028
G1X35.202Y16.428
G1X38.582
G1Y25.966
G1X35.202
G1Y16.428
G1X34.602Y15.828
G1X39.182
G1Y26.566
G1X34.602
G1Y15.828
G1X34.002Y15.228
G1X39.782
G1Y27.166
G1X34.002
G1Y15.228
G1X33.402Y14.628
G1X40.382
G1Y27.766
G1X33.402
G1Y14.628
G1X32.802Y14.028
G1X40.982
G1Y28.366
G1X32.802
G1Y14.028
G1X32.202Y13.428
G1X41.582
G1Y28.966
G1X32.202
G1Y13.428
G1X31.602Y12.828
G1X42.182
G1Y29.566
G1X31.602
G1Y12.828
G1X31.002Y12.228
G1X42.782
G1Y30.166
G1X31.002
G1Y12.228
G1X30.402Y11.628
G1X43.382
G1Y30.766
G1X30.402
G1Y11.628
G0Z18.080
G0X36.402Y17.628
G1Z7.107F200.0
G1X37.382F720.0
G1Y24.766
G1X36.402
G1Y17.628
G1X35.802Y17.028
G1X37.982
G1Y25.366
G1X35.802
G1Y17.028
G1X35.202Y16.428
G1X38.582
G1Y25.966
G1X35.202
G1Y16.428
G1X34.602Y15.828
G1X39.182
G1Y26.566
G1X34.602
G1Y15.828
G1X34.002Y15.228
G1X39.782
G1Y27.166
G1X34.002
G1Y15.228
G1X33.402Y14.628
G1X40.382
G1Y27.766
G1X33.402
G1Y14.628
G1X32.802Y14.028
G1X40.982
G1Y28.366
G1X32.802
G1Y14.028
G1X32.202Y13.428
G1X41.582
G1Y28.966
G1X32.202
G1Y13.428
G1X31.602Y12.828
G1X42.182
G1Y29.566
G1X31.602
G1Y12.828
G1X31.002Y12.228
G1X42.782
G1Y30.166
G1X31.002
G1Y12.228
G1X30.402Y11.628
G1X43.382
G1Y30.766
G1X30.402
G1Y11.628
G0Z18.080
G0X36.402Y17.628
G1Z6.370F200.0
G1X37.382F720.0
G1Y24.766
G1X36.402
G1Y17.628
G1X35.802Y17.028
G1X37.982
G1Y25.366
G1X35.802
G1Y17.028
G1X35.202Y16.428
G1X38.582
G1Y25.966
G1X35.202
G1Y16.428
G1X34.602Y15.828
G1X39.182
G1Y26.566
G1X34.602
G1Y15.828
G1X34.002Y15.228
G1X39.782
G1Y27.166
G1X34.002
G1Y15.228
G1X33.402Y14.628
G1X40.382
G1Y27.766
G1X33.402
G1Y14.628
G1X32.802Y14.028
G1X40.982
G1Y28.366
G1X32.802
G1Y14.028
G1X32.202Y13.428
G1X41.582
G1Y28.966
G1X32.202
G1Y13.428
G1X31.602Y12.828
G1X42.182
G1Y29.566
G1X31.602
G1Y12.828
G1X31.002Y12.228
G1X42.782
G1Y30.166
G1X31.002
G1Y12.228
G1X30.402Y11.628
G1X43.382
G1Y30.766
G1X30.402
G1Y11.628
G0Z18.080
G0X36.402Y17.628
G1Z5.634F200.0
G1X37.382F720.0
G1Y24.766
G1X36.402
G1Y17.628
G1X35.802Y17.028
G1X37.982
G1Y25.366
G1X35.802
G1Y17.028
G1X35.202Y16.428
G1X38.582
G1Y25.966
G1X35.202
G1Y16.428
G1X34.602Y15.828
G1X39.182
G1Y26.566
G1X34.602
G1Y15.828
G1X34.002Y15.228
G1X39.782
G1Y27.166
G1X34.002
G1Y15.228
G1X33.402Y14.628
G1X40.382
G1Y27.766
G1X33.402
G1Y14.628
G1X32.802Y14.028
G1X40.982
G1Y28.366
G1X32.802
G1Y14.028
G1X32.202Y13.428
G1X41.582
G1Y28.966
G1X32.202
G1Y13.428
G1X31.602Y12.828
G1X42.182
G1Y29.566
G1X31.602
G1Y12.828
G1X31.002Y12.228
G1X42.782
G1Y30.166
G1X31.002
G1Y12.228
G1X30.402Y11.628
G1X43.382
G1Y30.766
G1X30.402
G1Y11.628
G0Z18.080
G0X31.121Y13.344Z18.080
G1Z5.316F200.0
G1Y13.295F720.0
G1X42.663
G1Y13.344
G1X31.121
G1X30.521Y13.944
G1Y12.695
G1X43.263
G1Y13.944
G1X30.521
G0Z18.080
G0X31.121Y13.344
G1Z4.999F200.0
G1Y13.295F720.0
G1X42.663
G1Y13.344
G1X31.121
G1X30.521Y13.944
G1Y12.695
G1X43.263
G1Y13.944
G1X30.521
G0Z18.080
G0X31.121Y13.344
G1Z4.681F200.0
G1Y13.295F720.0
G1X42.663
G1Y13.344
G1X31.121
G1X30.521Y13.944
G1Y12.695
G1X43.263
G1Y13.944
G1X30.521
G0Z18.080
G0X31.121Y13.344
G1Z4.364F200.0
G1Y13.295F720.0
G1X42.663
G1Y13.344
G1X31.121
G1X30.521Y13.944
G1Y12.695
G1X43.263
G1Y13.944
G1X30.521
G0Z18.080
G0X31.121Y29.462
G1Z5.316F200.0
G1Y29.164F720.0
G1X42.663
G1Y29.462
G1X31.121
G1X30.521Y30.062
G1Y28.564
G1X43.263
G1Y30.062
G1X30.521
G0Z18.080
G0X31.121Y29.462
G1Z4.999F200.0
G1Y29.164F720.0
G1X42.663
G1Y29.462
G1X31.121
G1X30.521Y30.062
G1Y28.564
G1X43.263
G1Y30.062
G1X30.521
G0Z18.080
G0X31.121Y29.462
G1Z4.681F200.0
G1Y29.164F720.0
G1X42.663
G1Y29.462
G1X31.121
G1X30.521Y30.062
G1Y28.564
G1X43.263
G1Y30.062
G1X30.521
G0Z18.080
G0X31.121Y29.462
G1Z4.364F200.0
G1Y29.164F720.0
G1X42.663
G1Y29.462
G1X31.121
G1X30.521Y30.062
G1Y28.564
G1X43.263
G1Y30.062
G1X30.521
G0Z18.080
G0X32.470Y21.990Z18.080
G1Z4.929F200.0
G1Y21.267F720.0
G1X41.313
G1Y21.990
G1X32.470
G1X31.870Y22.590
G1Y20.667
G1X41.913
G1Y22.590
G1X31.870
G1X31.270Y23.190
G1Y20.067
G1X42.513
G1Y23.190
G1X31.270
G0Z18.080
G0X32.470Y21.990
G1Z4.224F200.0
G1Y21.267F720.0
G1X41.313
G1Y21.990
G1X32.470
G1X31.870Y22.590
G1Y20.667
G1X41.913
G1Y22.590
G1X31.870
G1X31.270Y23.190
G1Y20.067
G1X42.513
G1Y23.190
G1X31.270
G0Z18.080
G0X32.470Y21.990
G1Z3.519F200.0
G1Y21.267F720.0
G1X41.313
G1Y21.990
G1X32.470
G1X31.870Y22.590
G1Y20.667
G1X41.913
G1Y22.590
G1X31.870
G1X31.270Y23.190
G1Y20.067
G1X42.513
G1Y23.190
G1X31.270
G0Z18.080
G0X32.470Y21.990
G1Z2.814F200.0
G1Y21.267F720.0
G1X41.313
G1Y21.990
G1X32.470
G1X31.870Y22.590
G1Y20.667
G1X41.913
G1Y22.590
G1X31.870
G1X31.270Y23.190
G1Y20.067
G1X42.513
G1Y23.190
G1X31.270
G0Z18.080
G0X32.470Y21.990
G1Z2.109F200.0
G1Y21.267F720.0
G1X41.313
G1Y21.990
G1X32.470
G1X31.870Y22.590
G1Y20.667
G1X41.913
G1Y22.590
G1X31.870
G1X31.270Y23.190
G1Y20.067
G1X42.513
G1Y23.190
G1X31.270
G0Z18.080
G0X32.470Y21.990
G1Z1.405F200.0
G1Y21.267F720.0
G1X41.313
G1Y21.990
G1X32.470
G1X31.870Y22.590
G1Y20.667
G1X41.913
G1Y22.590
G1X31.870
G1X31.270Y23.190
G1Y20.067
G1X42.513
G1Y23.190
G1X31.270
G0Z18.080
G0X32.470Y21.990
G1Z0.700F200.0
G1Y21.267F720.0
G1X41.313
G1Y21.990
G1X32.470
G1X31.870Y22.590
G1Y20.667
G1X41.913
G1Y22.590
G1X31.870
G1X31.270Y23.190
G1Y20.067
G1X42.513
G1Y23.190
G1X31.270
G0Z18.080
G0X32.470Y21.990
G1Z-0.005F200.0
G1Y21.267F720.0
G1X41.313
G1Y21.990
G1X32.470
G1X31.870Y22.590
G1Y20.667
G1X41.913
G1Y22.590
G1X31.870
G1X31.270Y23.190
G1Y20.067
G1X42.513
G1Y23.190
G1X31.270
G0Z18.080
M5
G0Z33.320
G0X0.000Y0.000
M2
