(VECTRIC POST REVISION)
(2410E23C85915A17A0D6BB4BFA509A68)
T1
G17
G21
G90
G0Z10.320
G0X0.000Y0.000
S10000M3
G0X9.400Y9.400Z5.080
G1Z-1.000F200.0
G1X9.600F720.0
G1Y9.600
G1X9.400
G1Y9.400
G1X8.800Y8.800
G1X10.200
G1Y10.200
G1X8.800
G1Y8.800
G1X8.200Y8.200
G1X10.800
G1Y10.800
G1X8.200
G1Y8.200
G1X7.600Y7.600
G1X11.400
G1Y11.400
G1X7.600
G1Y7.600
G1X7.000Y7.000
G1X12.000
G1Y12.000
G1X7.000
G1Y7.000
G1X6.400Y6.400
G1X12.600
G1Y12.600
G1X6.400
G1Y6.400
G1X5.800Y5.800
G1X13.200
G1Y13.200
G1X5.800
G1Y5.800
G1X5.200Y5.200
G1X13.800
G1Y13.800
G1X5.200
G1Y5.200
G1X4.600Y4.600
G1X14.400
G1Y14.400
G1X4.600
G1Y4.600
G1X4.000Y4.000
G1X15.000
G1Y15.000
G1X4.000
G1Y4.000
G1X3.400Y3.400
G1X15.600
G1Y15.600
G1X3.400
G1Y3.400
G1X2.800Y2.800
G1X16.200
G1Y16.200
G1X2.800
G1Y2.800
G1X2.200Y2.200
G1X16.800
G1Y16.800
G1X2.200
G1Y2.200
G1X1.600Y1.600
G1X17.400
G1Y17.400
G1X1.600
G1Y1.600
G1X1.000Y1.000
G1X18.000
G1Y18.000
G1X1.000
G1Y1.000
G0Z5.080
G0X9.400Y9.400
G1Z-2.000F200.0
G1X9.600F720.0
G1Y9.600
G1X9.400
G1Y9.400
G1X8.800Y8.800
G1X10.200
G1Y10.200
G1X8.800
G1Y8.800
G1X8.200Y8.200
G1X10.800
G1Y10.800
G1X8.200
G1Y8.200
G1X7.600Y7.600
G1X11.400
G1Y11.400
G1X7.600
G1Y7.600
G1X7.000Y7.000
G1X12.000
G1Y12.000
G1X7.000
G1Y7.000
G1X6.400Y6.400
G1X12.600
G1Y12.600
G1X6.400
G1Y6.400
G1X5.800Y5.800
G1X13.200
G1Y13.200
G1X5.800
G1Y5.800
G1X5.200Y5.200
G1X13.800
G1Y13.800
G1X5.200
G1Y5.200
G1X4.600Y4.600
G1X14.400
G1Y14.400
G1X4.600
G1Y4.600
G1X4.000Y4.000
G1X15.000
G1Y15.000
G1X4.000
G1Y4.000
G1X3.400Y3.400
G1X15.600
G1Y15.600
G1X3.400
G1Y3.400
G1X2.800Y2.800
G1X16.200
G1Y16.200
G1X2.800
G1Y2.800
G1X2.200Y2.200
G1X16.800
G1Y16.800
G1X2.200
G1Y2.200
G1X1.600Y1.600
G1X17.400
G1Y17.400
G1X1.600
G1Y1.600
G1X1.000Y1.000
G1X18.000
G1Y18.000
G1X1.000
G1Y1.000
G0Z5.080
G0X9.400Y9.400
G1Z-3.000F200.0
G1X9.600F720.0
G1Y9.600
G1X9.400
G1Y9.400
G1X8.800Y8.800
G1X10.200
G1Y10.200
G1X8.800
G1Y8.800
G1X8.200Y8.200
G1X10.800
G1Y10.800
G1X8.200
G1Y8.200
G1X7.600Y7.600
G1X11.400
G1Y11.400
G1X7.600
G1Y7.600
G1X7.000Y7.000
G1X12.000
G1Y12.000
G1X7.000
G1Y7.000
G1X6.400Y6.400
G1X12.600
G1Y12.600
G1X6.400
G1Y6.400
G1X5.800Y5.800
G1X13.200
G1Y13.200
G1X5.800
G1Y5.800
G1X5.200Y5.200
G1X13.800
G1Y13.800
G1X5.200
G1Y5.200
G1X4.600Y4.600
G1X14.400
G1Y14.400
G1X4.600
G1Y4.600
G1X4.000Y4.000
G1X15.000
G1Y15.000
G1X4.000
G1Y4.000
G1X3.400Y3.400
G1X15.600
G1Y15.600
G1X3.400
G1Y3.400
G1X2.800Y2.800
G1X16.200
G1Y16.200
G1X2.800
G1Y2.800
G1X2.200Y2.200
G1X16.800
G1Y16.800
G1X2.200
G1Y2.200
G1X1.600Y1.600
G1X17.400
G1Y17.400
G1X1.600
G1Y1.600
G1X1.000Y1.000
G1X18.000
G1Y18.000
G1X1.000
G1Y1.000
G0Z5.080
G0X9.400Y9.400
G1Z-4.000F200.0
G1X9.600F720.0
G1Y9.600
G1X9.400
G1Y9.400
G1X8.800Y8.800
G1X10.200
G1Y10.200
G1X8.800
G1Y8.800
G1X8.200Y8.200
G1X10.800
G1Y10.800
G1X8.200
G1Y8.200
G1X7.600Y7.600
G1X11.400
G1Y11.400
G1X7.600
G1Y7.600
G1X7.000Y7.000
G1X12.000
G1Y12.000
G1X7.000
G1Y7.000
G1X6.400Y6.400
G1X12.600
G1Y12.600
G1X6.400
G1Y6.400
G1X5.800Y5.800
G1X13.200
G1Y13.200
G1X5.800
G1Y5.800
G1X5.200Y5.200
G1X13.800
G1Y13.800
G1X5.200
G1Y5.200
G1X4.600Y4.600
G1X14.400
G1Y14.400
G1X4.600
G1Y4.600
G1X4.000Y4.000
G1X15.000
G1Y15.000
G1X4.000
G1Y4.000
G1X3.400Y3.400
G1X15.600
G1Y15.600
G1X3.400
G1Y3.400
G1X2.800Y2.800
G1X16.200
G1Y16.200
G1X2.800
G1Y2.800
G1X2.200Y2.200
G1X16.800
G1Y16.800
G1X2.200
G1Y2.200
G1X1.600Y1.600
G1X17.400
G1Y17.400
G1X1.600
G1Y1.600
G1X1.000Y1.000
G1X18.000
G1Y18.000
G1X1.000
G1Y1.000
G0Z5.080
G0X9.400Y9.400
G1Z-5.000F200.0
G1X9.600F720.0
G1Y9.600
G1X9.400
G1Y9.400
G1X8.800Y8.800
G1X10.200
G1Y10.200
G1X8.800
G1Y8.800
G1X8.200Y8.200
G1X10.800
G1Y10.800
G1X8.200
G1Y8.200
G1X7.600Y7.600
G1X11.400
G1Y11.400
G1X7.600
G1Y7.600
G1X7.000Y7.000
G1X12.000
G1Y12.000
G1X7.000
G1Y7.000
G1X6.400Y6.400
G1X12.600
G1Y12.600
G1X6.400
G1Y6.400
G1X5.800Y5.800
G1X13.200
G1Y13.200
G1X5.800
G1Y5.800
G1X5.200Y5.200
G1X13.800
G1Y13.800
G1X5.200
G1Y5.200
G1X4.600Y4.600
G1X14.400
G1Y14.400
G1X4.600
G1Y4.600
G1X4.000Y4.000
G1X15.000
G1Y15.000
G1X4.000
G1Y4.000
G1X3.400Y3.400
G1X15.600
G1Y15.600
G1X3.400
G1Y3.400
G1X2.800Y2.800
G1X16.200
G1Y16.200
G1X2.800
G1Y2.800
G1X2.200Y2.200
G1X16.800
G1Y16.800
G1X2.200
G1Y2.200
G1X1.600Y1.600
G1X17.400
G1Y17.400
G1X1.600
G1Y1.600
G1X1.000Y1.000
G1X18.000
G1Y18.000
G1X1.000
G1Y1.000
G0Z5.080
G0X7.000Y9.000Z5.080
G1Z-6.000F200.0
G1X12.000F720.0
G1Y10.000
G1X7.000
G1Y9.000
G1X6.400Y8.400
G1X12.600
G1Y10.600
G1X6.400
G1Y8.400
G1X5.800Y7.800
G1X13.200
G1Y11.200
G1X5.800
G1Y7.800
G1X5.200Y7.200
G1X13.800
G1Y11.800
G1X5.200
G1Y7.200
G1X4.600Y6.600
G1X14.400
G1Y12.400
G1X4.600
G1Y6.600
G1X4.000Y6.000
G1X15.000
G1Y13.000
G1X4.000
G1Y6.000
G1X3.400Y5.400
G1X15.600
G1Y13.600
G1X3.400
G1Y5.400
G1X2.800Y4.800
G1X16.200
G1Y14.200
G1X2.800
G1Y4.800
G1X2.200Y4.200
G1X16.800
G1Y14.800
G1X2.200
G1Y4.200
G1X1.600Y3.600
G1X17.400
G1Y15.400
G1X1.600
G1Y3.600
G1X1.000Y3.000
G1X18.000
G1Y16.000
G1X1.000
G1Y3.000
G0Z5.080
G0X7.000Y9.000
G1Z-7.000F200.0
G1X12.000F720.0
G1Y10.000
G1X7.000
G1Y9.000
G1X6.400Y8.400
G1X12.600
G1Y10.600
G1X6.400
G1Y8.400
G1X5.800Y7.800
G1X13.200
G1Y11.200
G1X5.800
G1Y7.800
G1X5.200Y7.200
G1X13.800
G1Y11.800
G1X5.200
G1Y7.200
G1X4.600Y6.600
G1X14.400
G1Y12.400
G1X4.600
G1Y6.600
G1X4.000Y6.000
G1X15.000
G1Y13.000
G1X4.000
G1Y6.000
G1X3.400Y5.400
G1X15.600
G1Y13.600
G1X3.400
G1Y5.400
G1X2.800Y4.800
G1X16.200
G1Y14.200
G1X2.800
G1Y4.800
G1X2.200Y4.200
G1X16.800
G1Y14.800
G1X2.200
G1Y4.200
G1X1.600Y3.600
G1X17.400
G1Y15.400
G1X1.600
G1Y3.600
G1X1.000Y3.000
G1X18.000
G1Y16.000
G1X1.000
G1Y3.000
G0Z5.080
G0X7.000Y9.000
G1Z-8.000F200.0
G1X12.000F720.0
G1Y10.000
G1X7.000
G1Y9.000
G1X6.400Y8.400
G1X12.600
G1Y10.600
G1X6.400
G1Y8.400
G1X5.800Y7.800
G1X13.200
G1Y11.200
G1X5.800
G1Y7.800
G1X5.200Y7.200
G1X13.800
G1Y11.800
G1X5.200
G1Y7.200
G1X4.600Y6.600
G1X14.400
G1Y12.400
G1X4.600
G1Y6.600
G1X4.000Y6.000
G1X15.000
G1Y13.000
G1X4.000
G1Y6.000
G1X3.400Y5.400
G1X15.600
G1Y13.600
G1X3.400
G1Y5.400
G1X2.800Y4.800
G1X16.200
G1Y14.200
G1X2.800
G1Y4.800
G1X2.200Y4.200
G1X16.800
G1Y14.800
G1X2.200
G1Y4.200
G1X1.600Y3.600
G1X17.400
G1Y15.400
G1X1.600
G1Y3.600
G1X1.000Y3.000
G1X18.000
G1Y16.000
G1X1.000
G1Y3.000
G0Z5.080
G0X7.000Y9.000
G1Z-9.000F200.0
G1X12.000F720.0
G1Y10.000
G1X7.000
G1Y9.000
G1X6.400Y8.400
G1X12.600
G1Y10.600
G1X6.400
G1Y8.400
G1X5.800Y7.800
G1X13.200
G1Y11.200
G1X5.800
G1Y7.800
G1X5.200Y7.200
G1X13.800
G1Y11.800
G1X5.200
G1Y7.200
G1X4.600Y6.600
G1X14.400
G1Y12.400
G1X4.600
G1Y6.600
G1X4.000Y6.000
G1X15.000
G1Y13.000
G1X4.000
G1Y6.000
G1X3.400Y5.400
G1X15.600
G1Y13.600
G1X3.400
G1Y5.400
G1X2.800Y4.800
G1X16.200
G1Y14.200
G1X2.800
G1Y4.800
G1X2.200Y4.200
G1X16.800
G1Y14.800
G1X2.200
G1Y4.200
G1X1.600Y3.600
G1X17.400
G1Y15.400
G1X1.600
G1Y3.600
G1X1.000Y3.000
G1X18.000
G1Y16.000
G1X1.000
G1Y3.000
G0Z5.080
G0X7.000Y9.000
G1Z-10.000F200.0
G1X12.000F720.0
G1Y10.000
G1X7.000
G1Y9.000
G1X6.400Y8.400
G1X12.600
G1Y10.600
G1X6.400
G1Y8.400
G1X5.800Y7.800
G1X13.200
G1Y11.200
G1X5.800
G1Y7.800
G1X5.200Y7.200
G1X13.800
G1Y11.800
G1X5.200
G1Y7.200
G1X4.600Y6.600
G1X14.400
G1Y12.400
G1X4.600
G1Y6.600
G1X4.000Y6.000
G1X15.000
G1Y13.000
G1X4.000
G1Y6.000
G1X3.400Y5.400
G1X15.600
G1Y13.600
G1X3.400
G1Y5.400
G1X2.800Y4.800
G1X16.200
G1Y14.200
G1X2.800
G1Y4.800
G1X2.200Y4.200
G1X16.800
G1Y14.800
G1X2.200
G1Y4.200
G1X1.600Y3.600
G1X17.400
G1Y15.400
G1X1.600
G1Y3.600
G1X1.000Y3.000
G1X18.000
G1Y16.000
G1X1.000
G1Y3.000
G0Z5.080
G0X7.000Y9.000
G1Z-11.000F200.0
G1X12.000F720.0
G1Y10.000
G1X7.000
G1Y9.000
G1X6.400Y8.400
G1X12.600
G1Y10.600
G1X6.400
G1Y8.400
G1X5.800Y7.800
G1X13.200
G1Y11.200
G1X5.800
G1Y7.800
G1X5.200Y7.200
G1X13.800
G1Y11.800
G1X5.200
G1Y7.200
G1X4.600Y6.600
G1X14.400
G1Y12.400
G1X4.600
G1Y6.600
G1X4.000Y6.000
G1X15.000
G1Y13.000
G1X4.000
G1Y6.000
G1X3.400Y5.400
G1X15.600
G1Y13.600
G1X3.400
G1Y5.400
G1X2.800Y4.800
G1X16.200
G1Y14.200
G1X2.800
G1Y4.800
G1X2.200Y4.200
G1X16.800
G1Y14.800
G1X2.200
G1Y4.200
G1X1.600Y3.600
G1X17.400
G1Y15.400
G1X1.600
G1Y3.600
G1X1.000Y3.000
G1X18.000
G1Y16.000
G1X1.000
G1Y3.000
G0Z5.080
G0X1.850Y3.850Z5.080
G1Z-11.750F200.0
G1X2.441F720.0
G1Y15.103
G1X1.850
G1Y3.850
G1X1.250Y3.250
G1X3.041
G1Y15.703
G1X1.250
G1Y3.250
G0Z5.080
G0X1.850Y3.850
G1Z-12.500F200.0
G1X2.441F720.0
G1Y15.103
G1X1.850
G1Y3.850
G1X1.250Y3.250
G1X3.041
G1Y15.703
G1X1.250
G1Y3.250
G0Z5.080
G0X16.500Y3.850
G1Z-11.750F200.0
G1X17.091F720.0
G1Y15.103
G1X16.500
G1Y3.850
G1X15.900Y3.250
G1X17.691
G1Y15.703
G1X15.900
G1Y3.250
G0Z5.080
G0X16.500Y3.850
G1Z-12.500F200.0
G1X17.091F720.0
G1Y15.103
G1X16.500
G1Y3.850
G1X15.900Y3.250
G1X17.691
G1Y15.703
G1X15.900
G1Y3.250
G0Z5.080
G0X9.300Y5.300Z5.080
G1Z-12.000F200.0
G1X9.700F720.0
G1Y13.700
G1X9.300
G1Y5.300
G1X8.700Y4.700
G1X10.300
G1Y14.300
G1X8.700
G1Y4.700
G1X8.100Y4.100
G1X10.900
G1Y14.900
G1X8.100
G1Y4.100
G1X7.500Y3.500
G1X11.500
G1Y15.500
G1X7.500
G1Y3.500
G0Z5.080
G0X9.300Y5.300
G1Z-13.000F200.0
G1X9.700F720.0
G1Y13.700
G1X9.300
G1Y5.300
G1X8.700Y4.700
G1X10.300
G1Y14.300
G1X8.700
G1Y4.700
G1X8.100Y4.100
G1X10.900
G1Y14.900
G1X8.100
G1Y4.100
G1X7.500Y3.500
G1X11.500
G1Y15.500
G1X7.500
G1Y3.500
G0Z5.080
G0X9.300Y5.300
G1Z-14.000F200.0
G1X9.700F720.0
G1Y13.700
G1X9.300
G1Y5.300
G1X8.700Y4.700
G1X10.300
G1Y14.300
G1X8.700
G1Y4.700
G1X8.100Y4.100
G1X10.900
G1Y14.900
G1X8.100
G1Y4.100
G1X7.500Y3.500
G1X11.500
G1Y15.500
G1X7.500
G1Y3.500
G0Z5.080
G0X9.300Y5.300
G1Z-15.000F200.0
G1X9.700F720.0
G1Y13.700
G1X9.300
G1Y5.300
G1X8.700Y4.700
G1X10.300
G1Y14.300
G1X8.700
G1Y4.700
G1X8.100Y4.100
G1X10.900
G1Y14.900
G1X8.100
G1Y4.100
G1X7.500Y3.500
G1X11.500
G1Y15.500
G1X7.500
G1Y3.500
G0Z5.080
G0X9.300Y5.300
G1Z-16.000F200.0
G1X9.700F720.0
G1Y13.700
G1X9.300
G1Y5.300
G1X8.700Y4.700
G1X10.300
G1Y14.300
G1X8.700
G1Y4.700
G1X8.100Y4.100
G1X10.900
G1Y14.900
G1X8.100
G1Y4.100
G1X7.500Y3.500
G1X11.500
G1Y15.500
G1X7.500
G1Y3.500
G0Z5.080
M5
G0Z10.320
G0X0.000Y0.000
M2
